src/assets/bank.svg

<svg width="16" height="16" viewBox="0 0 16 16" fill="none" xmlns="http://www.w3.org/2000/svg">
<g clip-path="url(#clip0_1_267)">
<path d="M3.42691e-08 14.6667H16V16H3.42691e-08V14.6667ZM16 5.27268V6.66668H14V12V13.3333H2V12V6.66668H3.42691e-08V5.27268C-6.64697e-05 4.91338 0.0966633 4.56069 0.280022 4.25169C0.46338 3.94269 0.726596 3.68879 1.042 3.51668L7.042 0.244015C7.33572 0.0832542 7.66517 -0.00100708 8 -0.00100708C8.33483 -0.00100708 8.66428 0.0832542 8.958 0.244015L14.958 3.51668C15.2734 3.68879 15.5366 3.94269 15.72 4.25169C15.9033 4.56069 16.0001 4.91338 16 5.27268ZM3.33333 12H5.33333V6.66668H3.33333V12ZM6.66667 6.66668V12H9.33333V6.66668H6.66667ZM12.6667 6.66668H10.6667V12H12.6667V6.66668ZM14.6667 5.27268C14.6667 5.15291 14.6344 5.03535 14.5733 4.93235C14.5122 4.82935 14.4245 4.74472 14.3193 4.68735L8.31933 1.41468C8.22138 1.36123 8.11158 1.33322 8 1.33322C7.88842 1.33322 7.77862 1.36123 7.68067 1.41468L1.68067 4.68735C1.57553 4.74472 1.48779 4.82935 1.42667 4.93235C1.36555 5.03535 1.33331 5.15291 1.33333 5.27268V5.33335H14.6667V5.27268Z" fill="#7F858D"/>
</g>
<defs>
<clipPath id="clip0_1_267">
<rect width="16" height="16" fill="white"/>
</clipPath>
</defs>
</svg>

<svg width="16" height="16" fill="none" xmlns="http://www.w3.org/2000/svg">
  <g clip-path="url(#prefix__clip0_1_267)">
    <path
      d="M0 14.667h16V16H0v-1.333zm16-9.394v1.394h-2v6.666H2V6.667H0V5.273a2 2 0 011.042-1.756l6-3.273a1.995 1.995 0 011.916 0l6 3.273A2 2 0 0116 5.273zM3.333 12h2V6.667h-2V12zm3.334-5.333V12h2.666V6.667H6.667zm6 0h-2V12h2V6.667zm2-1.394a.667.667 0 00-.348-.586l-6-3.272a.667.667 0 00-.638 0l-6 3.272a.667.667 0 00-.348.586v.06h13.334v-.06z"
      fill="currentColor" />
  </g>
</svg>
